!!!OTL: Die dienende Schwester Es wohnt ein Kaiser an dem Rhein,
!!!ARE: Europa, Mitteleuropa, Deutschland (BRD), Westfalen
!!!YOR: 4, S. 116
!!    1913 gedruckt in Leipzig
!!!SCT: Q0075s
!!!YEM: Copyright 1995, estate of Helmut Schaffrath.
**kern
*ICvox
*Ivox
*M3/4
*k[b-]
*F:
{4cc
=1
2cc
4ff
=2
2a
4a
=3
2a
4cc
=4
2f}
{4cc
=5
2cc
4cc
=6
2cc
4dd
=7
2b-
4cc
=8
4a
4r}
{8cc
8ff
=9
4ff
8r
8a
8a
8cc
=10
2cc
4a
=11
2g
4f
=12
2f}
==
!!!AGN: Ballade, Adelige als Dienstmagd, Tod; Kinder - Spiel, Tanz
!! Einschiebsel am Anfang der dritten Zeile.
!!!ONB: ESAC (Essen Associative Code) Database: BALLADE
!!!AMT: simple triple
!!!AIN: vox
!!!EED: Helmut Schaffrath
!!!EEV: 1.0
*-
